X: 29093
T: Neily Cleere's
R: polka
M: 2/4
K: Dmixolydian
|:FG (~A2|A)B cD|FG AB|cA GB/G/|
FG A2|AB ce|fg/f/ ed|1 cA GA/G/:|2 cA G2||
|:fg a/b/a/g/|fa ge|fg a/b/a/g/|fa g2|
fg a/b/a/g/|fa ge|fd ec|AF G2:|

